src/assets/images/Registrate/SucheCopy.svg

<?xml version="1.0" encoding="UTF-8"?>
<svg width="22px" height="12px" viewBox="0 0 22 12" version="1.1" xmlns="http://www.w3.org/2000/svg" xmlns:xlink="http://www.w3.org/1999/xlink">
    <!-- Generator: Sketch 52.4 (67378) - http://www.bohemiancoding.com/sketch -->
    <title>Suche Copy</title>
    <desc>Created with Sketch.</desc>
    <defs>
        <path d="M11.6491154,5.00103707 C10.6991154,2.31103707 7.8991154,0.50103707 4.7691154,1.12103707 C2.4791154,1.58103707 0.6191154,3.41103707 0.1391154,5.70103707 C-0.6808846,9.57103707 2.2591154,13.0010371 5.9991154,13.0010371 C8.6091154,13.0010371 10.8291154,11.3310371 11.6491154,9.00103707 L15.9991154,9.00103707 L15.9991154,11.0010371 C15.9991154,12.1010371 16.8991154,13.0010371 17.9991154,13.0010371 C19.0991154,13.0010371 19.9991154,12.1010371 19.9991154,11.0010371 L19.9991154,9.00103707 C21.0991154,9.00103707 21.9991154,8.10103707 21.9991154,7.00103707 C21.9991154,5.90103707 21.0991154,5.00103707 19.9991154,5.00103707 L11.6491154,5.00103707 Z M5.9991154,9.00103707 C4.8991154,9.00103707 3.9991154,8.10103707 3.9991154,7.00103707 C3.9991154,5.90103707 4.8991154,5.00103707 5.9991154,5.00103707 C7.0991154,5.00103707 7.9991154,5.90103707 7.9991154,7.00103707 C7.9991154,8.10103707 7.0991154,9.00103707 5.9991154,9.00103707 Z" id="path-1"></path>
    </defs>
    <g id="Page-1" stroke="none" stroke-width="1" fill="none" fill-rule="evenodd">
        <g id="Registrate" transform="translate(-1036.000000, -662.000000)">
            <g id="Suche-Copy" transform="translate(1036.000000, 661.000000)">
                <mask id="mask-2" fill="white">
                    <use xlink:href="#path-1"></use>
                </mask>
                <use id="Key" fill="#DFE2E6" xlink:href="#path-1"></use>
            </g>
        </g>
    </g>
</svg>

<svg xmlns="http://www.w3.org/2000/svg" width="22" height="12" xmlns:xlink="http://www.w3.org/1999/xlink"><title>Suche Copy</title><desc>Created with Sketch.</desc><defs><path id="a" d="M11.65 5C10.7 2.3 7.9.5 4.77 1.12 2.47 1.58.62 3.42.14 5.7-.68 9.57 2.26 13 6 13c2.6 0 4.83-1.67 5.65-4H16v2c0 1.1.9 2 2 2s2-.9 2-2V9c1.1 0 2-.9 2-2s-.9-2-2-2h-8.35zM6 9c-1.1 0-2-.9-2-2s.9-2 2-2 2 .9 2 2-.9 2-2 2z"/></defs><g fill="none"><g><g transform="translate(-1036 -662) translate(1036 661)"><mask><use xlink:href="#a"/></mask><use fill="#DFE2E6" xlink:href="#a"/></g></g></g></svg>
